X:1
T:Title
%%score { ( 1 4 ) | ( 2 3 ) }
L:1/8
M:3/4
K:Eb
V:1 treble nm="Grand Piano"
V:4 treble 
V:2 bass 
V:3 bass 
V:1
 z2 z2[Q:1/4=108] E2 | G2 G2 G2 | G2 F2 E2 | G2 [FA]2 [GB]2 | [Ge]4 [GB]2 | c2 e2 c2 | %6
 [GB]2 G2 E2 | A2 A2 G2 | [DF]4 EF | G2 G2 G2 | G2 F2 E2 | G2 [FA]2 [GB]2 | [Ge]4 [Ge][Ge] | %13
 e2 d2 c2 | [Fd]2 [Fc]2 [FB]2 | [Gc]2 [FB]2 [E=A]2 | [DB]6 | B4 B2 | B2 c2 d2 | [Ge]4 [Ac]2 | %20
 [GB]4 [EG]2 | [GB]4 [FA]2 | [FA]4 [DAc]2 | [EAc]4 [EGB]2 | [EGB]4 z2 | [DAB]4 [DAB]2 | %26
 A2- [Ac]2 d2 | [Ge]4 [Ac]2 | [GB]4 [GB]2 | c2 e2 c2 | [GB]2 E2 A2 | G4 [DF]2 |[M:2/4] E4 |] %33
V:2
 z2 z2 [E,G,]2 | [E,B,E]2 [E,B,E]2 [E,B,E]2 | [E,B,E]2 [E,A,E]2 [E,G,]2 | [E,B,E]2 [E,B,]2 [E,E]2 | %4
 [E,B,]4 [E,E]2 | [A,EA]2 [A,CA]2 [A,EA]2 | [E,E]2 [E,B,E]2 [G,B,]2 | [F,A,D]2 [F,A,D]2 [E,B,E]2 | %8
 [B,,B,]4 [E,G,][E,A,E] | [E,B,E]2 [E,B,E]2 [E,B,E]2 | [E,B,E]2 [E,A,E]2 [E,G,]2 | %11
 [E,B,E]2 [E,B,]2 [E,E]2 | [E,B,]4 [E,B,][E,B,] | [F,=A,F]2 [F,B,F]2 [F,A,F]2 | %14
 [B,,B,]2 [C,=A,]2 [D,B,]2 | [E,E]2 [F,D]2 [F,C]2 | [B,,B,]6 | [B,DA]4 [B,DA]2 | %18
 [B,A]2- [B,CA]2 [B,A]2 | [E,B,]4 [E,E]2 | [E,E]4 [E,B,]2 | [B,,B,]4 [B,,B,]2 | [B,,B,]4 B,,2 | %23
 E,4 E,2 | E,4 z2 | F,4 F,2 | z2[K:treble] C2 [B,A]2 | [E,B,]4 [E,E]2 | [E,E]4 [E,E]2 | E2 z2 z2 | %30
 [E,E]2 [G,B,]2 [A,CE]2 | [B,E]4 [B,,A,]2 |[M:2/4] [E,G,]4 |] %33
V:3
 x6 | x6 | x6 | x6 | x6 | x6 | x6 | x6 | x6 | x6 | x6 | x6 | x6 | x6 | x6 | x6 | x6 | x6 | %18
 D2 z2 z2 | x6 | x6 | x6 | x6 | x6 | x6 | x6 | B,4[K:treble] z2 | x6 | x6 | %29
 [A,A]2- [A,CA]2 [A,EA]2 | x6 | x6 |[M:2/4] x4 |] %33
V:4
 x6 | x6 | x6 | x6 | x6 | x6 | x6 | x6 | x6 | x6 | x6 | x6 | x6 | x6 | x6 | x6 | x6 | x6 | x6 | %19
 x6 | x6 | x6 | x6 | x6 | x6 | x6 | [DB]2 z2 z2 | x6 | x6 | x6 | x6 | x6 |[M:2/4] x4 |] %33

